symbols/web/app_blocking/materialsymbolsoutlined/app_blocking_grad200fill1_48px.svg

<svg xmlns="http://www.w3.org/2000/svg" height="48" width="48"><path d="M36.4 32.25q-3.45 0-5.85-2.4-2.4-2.4-2.4-5.85 0-3.45 2.4-5.85 2.4-2.4 5.85-2.4 3.45 0 5.85 2.4 2.4 2.4 2.4 5.85 0 3.45-2.4 5.85-2.4 2.4-5.85 2.4Zm0-2.9q.7 0 1.375-.15T39 28.65l-7.25-7.25q-.35.55-.525 1.2-.175.65-.175 1.35 0 2.25 1.55 3.825 1.55 1.575 3.8 1.575Zm4.7-2.75q.35-.55.5-1.225.15-.675.15-1.375 0-2.25-1.55-3.8-1.55-1.55-3.8-1.55-.7 0-1.375.175T33.8 19.3ZM12.9 46.85q-1.55 0-2.6-1.05t-1.05-2.6V4.8q0-1.55 1.05-2.6t2.6-1.05h22.2q1.55 0 2.6 1.05t1.05 2.6V12H35.1V9.7H12.9v28.6h22.2V36h3.65v7.2q0 1.55-1.05 2.6t-2.6 1.05Z"/></svg>

<svg xmlns="http://www.w3.org/2000/svg" height="48" width="48"><path d="M36.4 32.25Q32.95 32.25 30.55 29.85Q28.15 27.45 28.15 24Q28.15 20.55 30.55 18.15Q32.95 15.75 36.4 15.75Q39.85 15.75 42.25 18.15Q44.65 20.55 44.65 24Q44.65 27.45 42.25 29.85Q39.85 32.25 36.4 32.25ZM36.4 29.35Q37.1 29.35 37.775 29.2Q38.45 29.05 39 28.65L31.75 21.4Q31.4 21.95 31.225 22.6Q31.05 23.25 31.05 23.95Q31.05 26.2 32.6 27.775Q34.15 29.35 36.4 29.35ZM41.1 26.6Q41.45 26.05 41.6 25.375Q41.75 24.7 41.75 24Q41.75 21.75 40.2 20.2Q38.65 18.65 36.4 18.65Q35.7 18.65 35.025 18.825Q34.35 19 33.8 19.3ZM12.9 46.85Q11.35 46.85 10.3 45.8Q9.25 44.75 9.25 43.2V4.8Q9.25 3.25 10.3 2.2Q11.35 1.15 12.9 1.15H35.1Q36.65 1.15 37.7 2.2Q38.75 3.25 38.75 4.8V12H35.1V9.7H12.9V38.3H35.1V36H38.75V43.2Q38.75 44.75 37.7 45.8Q36.65 46.85 35.1 46.85Z"/></svg>
